X:2381
T:C'est L'Amour. CJF.018
M:6/8
L:1/8
Q:120
C:"Charles James"
S: C.J.Fox MS, 1829/33, Beverley,E.Yorks.
R:Jig
O:England
A:East Yorkshire
B:Kidson Coll.Mitchell Lib.M1805
N:Charles James Fox
Z:P J Headford 2000
K:D
A|A2AA2A|A2AA2A|d2d dcd|(^d3e2)A|!A2AA2A|\
A2AA2A|e2e edc|d2z||!ABc|d2d ded|
d2c (cd^d)|e2e efe|d2c ABc|!d2d ded|d2c cd^d|e2e eac|d3-d2||!A|g3(ef).g|
f
3f2d|
c2c cBc|d3d2A|!g3efg|f2f fed|c2c cBc|d3-d2|h|]
